X:1
T: Donald Blue
L: 1/8
M: C|
K: D
dBAF AFAB | dBAF E2 D2 | dBAF AFAd | B2 BA B2 A/B/c |
dBAF AFAB | dBAF E2 D2 | dBAF AFAd | B2 BA B2 d2 ||
ABde fafd | fafd ed B2 | ABde fafd | B2 BA B2 A/B/c |
ABde fafd | fafd ed B2 | ABde fafd | B2 BA B2 d2 |]
